packages/sources/icons/src/vitamix/notification-fill.svg

<svg width="16" height="16" viewBox="0 0 16 16" fill="none" xmlns="http://www.w3.org/2000/svg">
<path fill-rule="evenodd" clip-rule="evenodd" d="M1.33333 11.3334V12.6667H14.6667V11.3334H14V6.68735C14 3.36202 11.3133 0.666687 8 0.666687C4.68666 0.666687 1.99999 3.36202 1.99999 6.68735V11.3334H1.33333ZM7.99999 15C8.92047 15 9.66666 14.2538 9.66666 13.3334H6.33333C6.33333 14.2538 7.07952 15 7.99999 15Z" fill="#001018"/>
</svg>

<svg width="16" height="16" fill="none" xmlns="http://www.w3.org/2000/svg"><path fill-rule="evenodd" clip-rule="evenodd" d="M1.333 11.333v1.334h13.334v-1.334H14V6.687c0-3.325-2.687-6.02-6-6.02s-6 2.695-6 6.02v4.646h-.667zM8 15c.92 0 1.667-.746 1.667-1.667H6.333C6.333 14.253 7.08 15 8 15z" fill="#001018"/></svg>
